packages/kaspersky-hexa-ui-icons/src/iconsSVGs/28x20/FlagCy.svg

<svg width="28" height="20" viewBox="0 0 28 20" fill="none" xmlns="http://www.w3.org/2000/svg">
<g clip-path="url(#clip0_5138_650)">
<path d="M0 2C0 0.895431 0.895431 0 2 0H26C27.1046 0 28 0.895431 28 2V18C28 19.1046 27.1046 20 26 20H2C0.895431 20 0 19.1046 0 18V2Z" fill="white"/>
<mask id="mask0_5138_650" style="mask-type:luminance" maskUnits="userSpaceOnUse" x="0" y="0" width="28" height="20">
<rect width="28" height="20" rx="2" fill="white"/>
</mask>
<g mask="url(#mask0_5138_650)">
<path d="M26 19.5V20H2V19.5H26ZM27.5 18V2C27.5 1.17157 26.8284 0.5 26 0.5H2C1.17157 0.5 0.5 1.17157 0.5 2V18C0.5 18.8284 1.17157 19.5 2 19.5V20C0.895431 20 0 19.1046 0 18V2C2.57702e-07 0.895431 0.895431 0 2 0H26C27.1046 0 28 0.895431 28 2V18C28 19.1046 27.1046 20 26 20V19.5C26.8284 19.5 27.5 18.8284 27.5 18Z" fill="#F5F5F5"/>
<path fill-rule="evenodd" clip-rule="evenodd" d="M20 3.33332C20.3631 3.15177 20.7316 3.56922 20.5064 3.907L20.0672 4.56579C20.0229 4.63237 19.9657 4.68951 19.8991 4.7339L18.0549 5.96337C18.0184 5.98772 17.9844 6.01562 17.9533 6.04667L17.8047 6.19525C17.5444 6.4556 17.5444 6.87771 17.8047 7.13806L18.1953 7.52858C18.4556 7.78893 18.4556 8.21104 18.1953 8.47139L17.6731 8.99355C17.4702 9.19646 17.1602 9.24676 16.9036 9.11843L16.5963 8.9648C16.267 8.80014 15.8665 8.93362 15.7019 9.26294L15.4568 9.753C15.3778 9.91115 15.2391 10.0314 15.0714 10.0873L13.436 10.6324C13.368 10.6551 13.2968 10.6667 13.2251 10.6667H12.412C12.1595 10.6667 11.9287 10.8093 11.8157 11.0352L11.6315 11.4037C11.4668 11.733 11.0664 11.8665 10.737 11.7018L8.76343 10.715C8.69934 10.683 8.64083 10.6408 8.59016 10.5902L7.52859 9.52858C7.40357 9.40356 7.33333 9.23399 7.33333 9.05718V8.47139C7.33333 8.21105 7.54438 7.99999 7.80473 7.99999C7.92976 7.99999 8.04966 7.95032 8.13807 7.86192L9.13807 6.86192C9.26309 6.73689 9.43266 6.66666 9.60947 6.66666H10.1862C10.4731 6.66666 10.7279 6.48304 10.8186 6.21081L11.1472 5.22498C11.2535 4.90601 11.5807 4.71614 11.9104 4.78208L14.5197 5.30392C14.6165 5.32328 14.7163 5.3209 14.8121 5.29696L17.2623 4.68441C17.3095 4.67261 17.3553 4.65568 17.3988 4.63393L18.6667 3.99999L20 3.33332Z" fill="#E7832C"/>
<circle cx="14" cy="15.3333" r="0.666667" fill="#445128"/>
<path opacity="0.75" d="M18.0703 12.3688C18.235 12.0396 18.6356 11.9054 18.9648 12.07C19.2941 12.2346 19.4273 12.6352 19.2627 12.9645C18.8398 13.8104 18.032 14.3926 17.4141 14.7458C17.094 14.9287 16.7982 15.0649 16.582 15.1559C16.4735 15.2016 16.3832 15.2367 16.3193 15.2604C16.2878 15.2722 16.2625 15.2813 16.2441 15.2878C16.2349 15.291 16.2272 15.2937 16.2217 15.2956C16.219 15.2965 16.2166 15.2969 16.2148 15.2975L16.2129 15.2985H16.2119L16.2109 15.2995C15.8616 15.4159 15.4836 15.2269 15.3672 14.8776C15.2508 14.5283 15.4398 14.1503 15.7891 14.0339H15.79C15.7922 14.0331 15.7963 14.0319 15.8018 14.03C15.813 14.026 15.8307 14.0193 15.8545 14.0104C15.9026 13.9925 15.9751 13.9651 16.0645 13.9274C16.2441 13.8518 16.49 13.7378 16.7529 13.5876C17.3014 13.2741 17.8266 12.856 18.0703 12.3688Z" fill="#445128"/>
<path opacity="0.75" d="M9.92968 12.3688C9.76505 12.0396 9.36445 11.9054 9.03515 12.07C8.70588 12.2346 8.57274 12.6352 8.7373 12.9645C9.16025 13.8104 9.96795 14.3926 10.5859 14.7458C10.906 14.9287 11.2018 15.0649 11.418 15.1559C11.5265 15.2016 11.6168 15.2367 11.6807 15.2604C11.7122 15.2722 11.7375 15.2813 11.7559 15.2878C11.7651 15.291 11.7728 15.2937 11.7783 15.2956C11.781 15.2965 11.7834 15.2969 11.7852 15.2975L11.7871 15.2985H11.7881L11.7891 15.2995C12.1384 15.4159 12.5164 15.2269 12.6328 14.8776C12.7492 14.5283 12.5602 14.1503 12.2109 14.0339H12.21C12.2078 14.0331 12.2037 14.0319 12.1982 14.03C12.187 14.026 12.1693 14.0193 12.1455 14.0104C12.0974 13.9925 12.0249 13.9651 11.9355 13.9274C11.7559 13.8518 11.51 13.7378 11.2471 13.5876C10.6986 13.2741 10.1734 12.856 9.92968 12.3688Z" fill="#445128"/>
</g>
</g>
<defs>
<clipPath id="clip0_5138_650">
<rect width="28" height="20" fill="white"/>
</clipPath>
</defs>
</svg>

<svg xmlns="http://www.w3.org/2000/svg" width="28" height="20" fill="none" viewBox="0 0 28 20"><g clip-path="url(#a)"><path fill="#fff" d="M0 2C0 .8954.8954 0 2 0h24c1.1046 0 2 .8954 2 2v16c0 1.1046-.8954 2-2 2H2c-1.1046 0-2-.8954-2-2z"/><mask id="b" width="28" height="20" x="0" y="0" maskUnits="userSpaceOnUse" style="mask-type:luminance"><rect width="28" height="20" fill="#fff" rx="2"/></mask><g mask="url(#b)"><path fill="#f5f5f5" d="M26 19.5v.5H2v-.5zm1.5-1.5V2c0-.8284-.6716-1.5-1.5-1.5H2C1.1716.5.5 1.1716.5 2v16c0 .8284.6716 1.5 1.5 1.5v.5c-1.1046 0-2-.8954-2-2V2C0 .8954.8954 0 2 0h24c1.1046 0 2 .8954 2 2v16c0 1.1046-.8954 2-2 2v-.5c.8284 0 1.5-.6716 1.5-1.5"/><path fill="#e7832c" fill-rule="evenodd" d="M20 3.3333c.3631-.1815.7316.236.5064.5737l-.4392.6588a.61.61 0 0 1-.1681.1681l-1.8442 1.2295a.67.67 0 0 0-.1016.0833l-.1486.1485a.667.667 0 0 0 0 .9429l.3906.3905a.667.667 0 0 1 0 .9428l-.5222.5222a.667.667 0 0 1-.7695.1248l-.3073-.1536a.6666.6666 0 0 0-.8944.2981l-.2451.4901a.666.666 0 0 1-.3854.3343l-1.6354.5451a.67.67 0 0 1-.2109.0343h-.8131a.667.667 0 0 0-.5963.3685l-.1842.3685a.6667.6667 0 0 1-.8945.2981l-1.9736-.9868a.67.67 0 0 1-.1732-.1248L7.5286 9.5286a.667.667 0 0 1-.1953-.4714v-.5858c0-.2603.211-.4714.4714-.4714a.472.472 0 0 0 .3334-.138l1-1a.667.667 0 0 1 .4714-.1953h.5767a.667.667 0 0 0 .6324-.4559l.3286-.9858a.6666.6666 0 0 1 .7632-.443l2.6093.522a.67.67 0 0 0 .2924-.007l2.4502-.6126a.67.67 0 0 0 .1365-.0505L18.6667 4z" clip-rule="evenodd"/><circle cx="14" cy="15" r="1" fill="#445128"/><path fill="#445128" d="M18.07 12.369a.6684.6684 0 0 1 .895-.299.667.667 0 0 1 .298.895c-.423.846-1.231 1.428-1.849 1.781a7.8 7.8 0 0 1-.832.41 6.6 6.6 0 0 1-.338.132l-.022.008q-.004.001-.007.002l-.002.001h-.001l-.001.001a.667.667 0 0 1-.844-.422.667.667 0 0 1 .422-.844h.001l.012-.004q.017-.006.053-.02a5 5 0 0 0 .21-.083 6.5 6.5 0 0 0 .688-.34c.549-.313 1.074-.732 1.317-1.219m-8.14.001a.6684.6684 0 0 0-.895-.299.667.667 0 0 0-.298.895c.423.846 1.231 1.428 1.849 1.781a7.8 7.8 0 0 0 .832.41 6.6 6.6 0 0 0 .338.132l.022.008q.004.001.007.002l.002.001h.001l.001.001a.667.667 0 0 0 .844-.422.667.667 0 0 0-.422-.844h-.001l-.012-.004q-.017-.006-.053-.02a5 5 0 0 1-.21-.083 6.5 6.5 0 0 1-.688-.34c-.548-.313-1.074-.732-1.317-1.219"/></g></g><defs><clipPath id="a"><path fill="#fff" d="M0 0h28v20H0z"/></clipPath></defs></svg>
